src/components/common/icons/like.svg

<svg height="35" viewBox="0 0 40 35" width="40" xmlns="http://www.w3.org/2000/svg"><path d="m28.55168 4.33459091c1.8192 0 3.5248.70318182 4.8112 1.98068182 1.2816 1.27431818 1.9856 2.97340909 1.9856 4.78227277 0 1.8120454-.704 3.5095454-1.9856 4.7838636-2.1744 2.1604545-4.1952 3.9311364-6.1536 5.6477273-2.48 2.1715909-4.8416 4.2461363-7.3184 6.9013636-2.4736-2.6552273-4.8384-4.7297727-7.3184-6.9013636-1.9584-1.7165909-3.9808-3.4888637-6.152-5.6477273-1.2816-1.2743182-1.9872-2.9718182-1.9872-4.7838636 0-1.80886368.7056-3.50795459 1.9872-4.78227277 1.2848-1.2775 2.992-1.98068182 4.8112-1.98068182 6.128 0 8.664 7.19409089 8.664 7.19409089s2.5344-7.19409089 8.656-7.19409089m0-4.19204546c-5.2048 0-7.8272 3.14681819-8.656 4.38454546-.8336-1.23772727-3.4592-4.38454546-8.664-4.38454546-2.9456 0-5.712 1.13909091-7.792 3.20886364-2.0768 2.06818182-3.224 4.81727273-3.224 7.74613641 0 2.9320454 1.1472 5.6811363 3.224 7.7477272 2.264 2.2511364 4.3392 4.0711364 6.3456 5.8275 2.8272 2.4802273 5.4976 4.8188637 8.2992 8.0325.3216.3675 1.5328 1.9202273 1.5456 1.9361364l.2608.3388636.2624-.3388636c.0128-.0159091 1.224-1.5686364 1.5456-1.9361364 2.8016-3.2136363 5.472-5.5522727 8.2992-8.0325 2.0064-1.7563636 4.0816-3.5763636 6.344-5.8275 2.0784-2.0665909 3.224-4.8156818 3.224-7.7477272 0-2.92886368-1.1456-5.67795459-3.224-7.74613641-2.08-2.06977273-4.8448-3.20886364-7.7904-3.20886364" fill="#010202" fill-rule="evenodd"/></svg>

<?xml version="1.0" encoding="UTF-8"?>
<svg width="40px" height="35px" viewBox="0 0 40 35" version="1.1" xmlns="http://www.w3.org/2000/svg" xmlns:xlink="http://www.w3.org/1999/xlink">
    <!-- Generator: Sketch 52.5 (67469) - http://www.bohemiancoding.com/sketch -->
    <title>Icons/.like</title>
    <desc>Created with Sketch.</desc>
    <g id="Vapaaehtoisalusta-Layouts" stroke="none" stroke-width="1" fill="none" fill-rule="evenodd">
        <g id="HKI-Ikonit" transform="translate(-366.000000, -922.000000)" fill="#010202">
            <g id="Icons/.like" transform="translate(366.000000, 922.000000)">
                <path d="M28.55168,4.33459091 C30.37088,4.33459091 32.07648,5.03777273 33.36288,6.31527273 C34.64448,7.58959091 35.34848,9.28868182 35.34848,11.0975455 C35.34848,12.9095909 34.64448,14.6070909 33.36288,15.8814091 C31.18848,18.0418636 29.16768,19.8125455 27.20928,21.5291364 C24.72928,23.7007273 22.36768,25.7752727 19.89088,28.4305 C17.41728,25.7752727 15.05248,23.7007273 12.57248,21.5291364 C10.61408,19.8125455 8.59168,18.0402727 6.42048,15.8814091 C5.13888,14.6070909 4.43328,12.9095909 4.43328,11.0975455 C4.43328,9.28868182 5.13888,7.58959091 6.42048,6.31527273 C7.70528,5.03777273 9.41248,4.33459091 11.23168,4.33459091 C17.35968,4.33459091 19.89568,11.5286818 19.89568,11.5286818 C19.89568,11.5286818 22.43008,4.33459091 28.55168,4.33459091 M28.55168,0.142545455 C23.34688,0.142545455 20.72448,3.28936364 19.89568,4.52709091 C19.06208,3.28936364 16.43648,0.142545455 11.23168,0.142545455 C8.28608,0.142545455 5.51968,1.28163636 3.43968,3.35140909 C1.36288,5.41959091 0.21568,8.16868182 0.21568,11.0975455 C0.21568,14.0295909 1.36288,16.7786818 3.43968,18.8452727 C5.70368,21.0964091 7.77888,22.9164091 9.78528,24.6727727 C12.61248,27.153 15.28288,29.4916364 18.08448,32.7052727 C18.40608,33.0727727 19.61728,34.6255 19.63008,34.6414091 L19.89088,34.9802727 L20.15328,34.6414091 C20.16608,34.6255 21.37728,33.0727727 21.69888,32.7052727 C24.50048,29.4916364 27.17088,27.153 29.99808,24.6727727 C32.00448,22.9164091 34.07968,21.0964091 36.34208,18.8452727 C38.42048,16.7786818 39.56608,14.0295909 39.56608,11.0975455 C39.56608,8.16868182 38.42048,5.41959091 36.34208,3.35140909 C34.26208,1.28163636 31.49728,0.142545455 28.55168,0.142545455" id="Fill-6"></path>
            </g>
        </g>
    </g>
</svg>
